papirus/16x16/apps/vym.svg

<svg height="16" width="16" xmlns="http://www.w3.org/2000/svg"><rect fill="#4d4d4d" height="16" rx="8" transform="matrix(0 -1 -1 0 0 0)" width="16" x="-16" y="-16"/><path d="m9 4c-2.209139 0-4 1.790861-4 4 .0007288.026051.0007131.052094.0019531.078125-.00075.02438-.0058393.0476896-.0058593.0722656.0007.063165.0019993.1263997.0058593.1894532-.0000985.01262 0 .0244593 0 .0371093v.7460938l-.0058593.2773437-.9121094 1.4414064c-.2101365.400574-.011427.648363.4394531.654297l.4785156.005859v.001953.564453.558594c0 .470618.4393014.865235.9121094.865235l1.0859375.015624v2.423829c.3281103.040648.6605372.068359 1 .068359 1.2608154 0 2.447142-.297245 3.505859-.8125v-3.886719c0-.06463-.002606-.120589-.003906-.18164.946759-.758978 1.497794-1.9057161 1.498047-3.119141 0-2.209139-1.790861-3.9999999-4-4z" fill="#6084ff"/><path d="m9.5 5a2.5 2.5 0 0 0 -2.5 2.5 2.5 2.5 0 0 0  2.5 2.5 2.5 2.5 0 0 0  2.5-2.5 2.5 2.5 0 0 0 -2.5-2.5zm0 1a1.4999999 1.4999999 0 0 1 1.5 1.5 1.4999999 1.4999999 0 0 1 -1.5 1.5 1.4999999 1.4999999 0 0 1 -1.5-1.5 1.4999999 1.4999999 0 0 1  1.5-1.5z" fill="#fff"/><circle cx="9.5" cy="7.5" fill="#fff" r=".5"/></svg>

<?xml version="1.0" encoding="UTF-8" standalone="no"?>
<!-- Created with Inkscape (http://www.inkscape.org/) -->

<svg
   xmlns:dc="http://purl.org/dc/elements/1.1/"
   xmlns:cc="http://creativecommons.org/ns#"
   xmlns:rdf="http://www.w3.org/1999/02/22-rdf-syntax-ns#"
   xmlns:svg="http://www.w3.org/2000/svg"
   xmlns="http://www.w3.org/2000/svg"
   xmlns:sodipodi="http://sodipodi.sourceforge.net/DTD/sodipodi-0.dtd"
   xmlns:inkscape="http://www.inkscape.org/namespaces/inkscape"
   id="svg2817"
   height="16"
   width="16"
   version="1.0"
   inkscape:version="0.91 r13725"
   sodipodi:docname="vym16.svg">
  <defs
     id="defs18" />
  <sodipodi:namedview
     pagecolor="#ffffff"
     bordercolor="#666666"
     borderopacity="1"
     objecttolerance="10"
     gridtolerance="10"
     guidetolerance="10"
     inkscape:pageopacity="0"
     inkscape:pageshadow="2"
     inkscape:window-width="1600"
     inkscape:window-height="849"
     id="namedview16"
     showgrid="false"
     inkscape:zoom="32.3"
     inkscape:cx="12.755478"
     inkscape:cy="3.7710587"
     inkscape:window-x="0"
     inkscape:window-y="0"
     inkscape:window-maximized="1"
     inkscape:current-layer="svg2817"
     inkscape:snap-grids="true"
     inkscape:snap-page="true">
    <inkscape:grid
       type="xygrid"
       id="grid4150" />
  </sodipodi:namedview>
  <metadata
     id="metadata57">
    <rdf:RDF>
      <cc:Work
         rdf:about="">
        <dc:format>image/svg+xml</dc:format>
        <dc:type
           rdf:resource="http://purl.org/dc/dcmitype/StillImage" />
        <dc:title></dc:title>
      </cc:Work>
    </rdf:RDF>
  </metadata>
  <g
     id="layer7"
     display="none"
     transform="translate(-52.273,-34.186)"
     style="display:none">
    <rect
       id="rect4169"
       display="inline"
       rx="9"
       ry="9"
       height="44"
       width="44"
       y="2"
       x="2"
       style="display:inline;fill:#abe1ad" />
  </g>
  <rect
     style="fill:#4d4d4d;fill-opacity:1"
     id="rect4203"
     ry="8"
     rx="8"
     transform="matrix(0,-1,-1,0,0,0)"
     height="16"
     width="16"
     y="-16"
     x="-16" />
  <path
     style="fill:#6084ff;fill-opacity:1"
     d="M 9 4 C 6.790861 4 5 5.790861 5 8 C 5.0007288 8.026051 5.0007131 8.052094 5.0019531 8.078125 C 5.0012031 8.102505 4.9961138 8.1258146 4.9960938 8.1503906 C 4.9967938 8.2135556 4.9980931 8.2767903 5.0019531 8.3398438 C 5.0018546 8.3524638 5.0019531 8.3643031 5.0019531 8.3769531 L 5.0019531 9.1230469 L 4.9960938 9.4003906 L 4.0839844 10.841797 C 3.8738479 11.242371 4.0725574 11.49016 4.5234375 11.496094 L 5.0019531 11.501953 L 5.0019531 11.503906 L 5.0019531 12.068359 L 5.0019531 12.626953 C 5.0019531 13.097571 5.4412545 13.492188 5.9140625 13.492188 L 7 13.507812 L 7 15.931641 C 7.3281103 15.972289 7.6605372 16 8 16 C 9.2608154 16 10.447142 15.702755 11.505859 15.1875 L 11.505859 11.300781 C 11.505859 11.236151 11.503253 11.180192 11.501953 11.119141 C 12.448712 10.360163 12.999747 9.2134249 13 8 C 13 5.790861 11.209139 4.0000001 9 4 z "
     id="path4171" />
  <path
     style="opacity:1;fill:#ffffff;fill-opacity:1;stroke:none;stroke-width:4;stroke-linecap:round;stroke-linejoin:round;stroke-miterlimit:4;stroke-dasharray:none;stroke-opacity:1"
     d="M 9.5 5 A 2.5 2.5 0 0 0 7 7.5 A 2.5 2.5 0 0 0 9.5 10 A 2.5 2.5 0 0 0 12 7.5 A 2.5 2.5 0 0 0 9.5 5 z M 9.5 6 A 1.4999999 1.4999999 0 0 1 11 7.5 A 1.4999999 1.4999999 0 0 1 9.5 9 A 1.4999999 1.4999999 0 0 1 8 7.5 A 1.4999999 1.4999999 0 0 1 9.5 6 z "
     id="path4276" />
  <circle
     style="opacity:1;fill:#ffffff;fill-opacity:1;stroke:none;stroke-width:4;stroke-linecap:round;stroke-linejoin:round;stroke-miterlimit:4;stroke-dasharray:none;stroke-opacity:1"
     id="path4167"
     cx="9.5"
     cy="7.5"
     r="0.5" />
</svg>
